X:1
T:Se muove a
T:Se muove a
T:Fr.Caccini
T:Source : Primo libro delle Musische a 1 e 2 voci---Firenze---Z.Pignoni---1618. Editor : André Vierendeels (12/06/15).
T:Notes : Original clefs : C1, F4 Figures in Bc are notated in original print 3/2 in original print
T:(Canzonetta)
C:Fr.Caccini
%%score 1 2
L:1/8
Q:1/4=70
M:3/4
K:F
V:1 treble nm="Soprano" snm="S"
V:2 bass nm="BC" snm="BC"
V:1
 z2 z2 G2 | G3 A Bc | d3 e f2 | e2 d3 c | c4 c2 | d2 c3 B | Bc d3 c | BA A3 G- | A6 | z6 | %10
w: Se|muo- * * *|* * ve'a|giu- rar _|fe- de,|al Tri- bu-|nal _ _ d'a-|* * mo- re,|_||
 z2 G2 A2 | B2 cA Bc | dc de f2 | f2 _e3 d | c3 d _e2 | c2 c3 B | B6 | B2 c2 d2 | _ed d2 z f- | %19
w: e non|* prar- * * *||si'e non ver-|sar _ _|do- lo- *|re,|un a- ma-|tor _ _ si|
 _e2 d3 c | c6 | z2 B2 c2 | d4 B2 | A2 G3 F | F4 G2 | AB cd c2 | B2 A3 G | A4 A2 | B3 c Bc | %29
w: _ cre- *|de,|ei non|fa con|qual leg- *|ge, A-|mo- * * * *|re'i ser- vi|suoi go-|ver- * * *|
 d2 _ed cB | AG A3 G | G6 | A2 BG AB | c4 d2 | d4 c2 | dc BA GF | GA GA Bc | de f3 _e | d4 cB | %39
w: * n'e _ _ _|_ _ re- *|ge,|A- mor- * * *|* re'i|ser- vi|suoi _ _ _ _ _|_ _ _ _ _ _|* * * go-|ver- * *|
 AG AB c2 | B2 A3 G | G6 |] %42
w: |na'e reg- *|ge.|
V:2
 G,,6 | G,2 F,2 _E,2 | D,6 | A,2 B,4 | F,4 F,2 | D,2 E,2 ^F,2 | G,4 F,2 |"^6" F,2 _E,4 | D,4 D,2 | %9
 C,2 D,2 E,2 | F,4 F,2 | G,2 A,4 | B,2 B,,2 D,2 | B,,6 | _E,2 F,2 G,2 | _E,2 F,4 | B,2 B,,2 B,2 | %17
 A,2 G,2 F,2 | _E,2 C,2 F,2- | F,2 G,4 | C,2 D,2 E,2 | F,2 _E,4 |"^-natural" D,2 A,,2 B,,2 | %23
 B,,2 C,4 | F,,4 C,2 | F,2 G,2 A,2 |"^6" D,2 _E,4 | D,4 C,2 | B,,4 A,,2 | G,,4 C,2 | _E,2 D,4 | %31
 G,,4 G,,2 | D,2 G,4 |"^-natural" F,2 E,2 D,2 | D,2 _E,4 |"^-natural" D,6 |"^b" _E,4 C,2 | %37
"^6" B,,2 A,,4 | B,,2 G,,4 |"^b" C,2 D,2 _E,2 | C,2 D,4 | G,,6 |] %42

